build/img/wifi_1.svg

<?xml version="1.0" encoding="UTF-8"?> <svg xmlns="http://www.w3.org/2000/svg" width="285" height="56" viewBox="0 0 285 56" fill="none"> <path d="M277 0H8C3.58172 0 0 3.58172 0 8V48C0 52.4183 3.58172 56 8 56H277C281.418 56 285 52.4183 285 48V8C285 3.58172 281.418 0 277 0Z" fill="white"></path> <path d="M277 0H8C3.58172 0 0 3.58172 0 8V48C0 52.4183 3.58172 56 8 56H277C281.418 56 285 52.4183 285 48V8C285 3.58172 281.418 0 277 0Z" fill="url(#paint0_linear)"></path> <path d="M14.3047 18.3945H18.0234L22.6992 32.9277L27.5117 18.3398H30.4238L35.25 32.9277L39.9258 18.3945H43.5352L36.6992 38.1367H33.7324L28.9199 24.0547L24.1074 38.1367H21.127L14.3047 18.3945ZM46.2969 20.9512V17.7246H49.9336V20.9512H46.2969ZM46.4336 38V23.2207H49.8242V38H46.4336ZM53.6934 31.082V27.7461H61.9785V31.082H53.6934ZM66.0664 38V18.3945H80.6543V21.5391H69.5117V26.8848H79.3965V30.0156H69.5117V38H66.0664ZM84.1133 20.9512V17.7246H87.75V20.9512H84.1133ZM84.25 38V23.2207H87.6406V38H84.25ZM99.0566 23.2207H102.666L106.877 34.1855L110.705 23.2207H114.232L108.354 38.4238C107.761 39.9368 107.096 41.0033 106.357 41.623C105.628 42.252 104.671 42.5664 103.486 42.5664C102.265 42.5664 101.098 42.2656 99.9863 41.6641L101.135 39.1484C101.809 39.5221 102.47 39.709 103.117 39.709C103.6 39.709 104.001 39.5814 104.32 39.3262C104.648 39.071 104.949 38.6289 105.223 38L99.0566 23.2207ZM117.145 38V23.2207H130.324V38H126.934V26.1328H120.521V38H117.145ZM134.59 42.4844V23.2207H137.967V25.6816C139.279 23.8314 140.952 22.9062 142.984 22.9062C143.868 22.9062 144.721 23.0794 145.541 23.4258C146.361 23.7721 147.095 24.2643 147.742 24.9023C148.389 25.5404 148.904 26.3561 149.287 27.3496C149.679 28.3431 149.875 29.4368 149.875 30.6309C149.875 31.8158 149.679 32.9004 149.287 33.8848C148.904 34.8691 148.389 35.6803 147.742 36.3184C147.104 36.9564 146.375 37.4486 145.555 37.7949C144.734 38.1413 143.878 38.3145 142.984 38.3145C140.961 38.3145 139.288 37.444 137.967 35.7031V42.4844H134.59ZM137.885 30.6309C137.885 32.0163 138.309 33.151 139.156 34.0352C140.004 34.9193 141.02 35.3613 142.205 35.3613C143.399 35.3613 144.402 34.9284 145.213 34.0625C146.024 33.1875 146.43 32.0254 146.43 30.5762C146.43 29.1816 146.02 28.0469 145.199 27.1719C144.379 26.2878 143.381 25.8457 142.205 25.8457C141.02 25.8457 140.004 26.2923 139.156 27.1855C138.309 28.0788 137.885 29.2272 137.885 30.6309ZM152.336 33.6934C152.336 32.1074 152.883 30.9043 153.977 30.084C155.079 29.2546 156.529 28.8398 158.324 28.8398C159.773 28.8398 161.136 29.0449 162.412 29.4551V29.1816C162.412 28.1517 162.098 27.3678 161.469 26.8301C160.849 26.2832 159.951 26.0098 158.775 26.0098C157.445 26.0098 156.036 26.3197 154.551 26.9395L153.621 24.2188C154.533 23.8086 155.417 23.5033 156.273 23.3027C157.139 23.0931 158.133 22.9883 159.254 22.9883C161.405 22.9883 163.023 23.5306 164.107 24.6152C165.201 25.6908 165.748 27.2311 165.748 29.2363V38H162.385V36.1816C161.191 37.6035 159.596 38.3145 157.6 38.3145C156.643 38.3145 155.772 38.1458 154.988 37.8086C154.204 37.4622 153.566 36.9336 153.074 36.2227C152.582 35.5117 152.336 34.6686 152.336 33.6934ZM155.699 33.5703C155.699 34.2448 155.968 34.778 156.506 35.1699C157.044 35.5618 157.727 35.7578 158.557 35.7578C159.687 35.7578 160.621 35.4707 161.359 34.8965C162.098 34.3132 162.467 33.5658 162.467 32.6543V31.8066C161.482 31.4147 160.352 31.2188 159.076 31.2188C158.01 31.2188 157.18 31.4238 156.588 31.834C155.995 32.2441 155.699 32.8229 155.699 33.5703ZM169.781 38V23.2207H177.369C178.846 23.2207 180.026 23.5534 180.91 24.2188C181.794 24.8841 182.236 25.7819 182.236 26.9121C182.236 28.4616 181.443 29.5918 179.857 30.3027C181.89 30.877 182.906 32.1074 182.906 33.9941C182.906 35.2337 182.419 36.2135 181.443 36.9336C180.468 37.6445 179.137 38 177.451 38H169.781ZM173.104 35.3066H176.945C177.757 35.3066 178.376 35.138 178.805 34.8008C179.242 34.4544 179.461 33.9896 179.461 33.4062C179.461 32.8503 179.233 32.4128 178.777 32.0938C178.331 31.7747 177.665 31.6152 176.781 31.6152H173.104V35.3066ZM173.104 29.3184H176.576C177.269 29.3184 177.811 29.1543 178.203 28.8262C178.595 28.4889 178.791 28.0469 178.791 27.5C178.791 26.9896 178.613 26.584 178.258 26.2832C177.902 25.9733 177.36 25.8184 176.631 25.8184H173.104V29.3184ZM184.191 37.9727L184.438 35.1973C184.729 35.2702 185.057 35.3066 185.422 35.3066C185.75 35.3066 186.019 35.2702 186.229 35.1973C186.447 35.1152 186.675 34.9466 186.912 34.6914C187.158 34.4271 187.354 34.026 187.5 33.4883C187.655 32.9414 187.796 32.235 187.924 31.3691C188.061 30.4941 188.156 29.3776 188.211 28.0195C188.275 26.6615 188.307 25.0618 188.307 23.2207H199.477V38H196.086V26.1328H191.479C191.479 27.6458 191.433 28.9948 191.342 30.1797C191.26 31.3555 191.146 32.3672 191 33.2148C190.854 34.0534 190.658 34.7734 190.412 35.375C190.166 35.9674 189.906 36.446 189.633 36.8105C189.368 37.166 189.04 37.4486 188.648 37.6582C188.266 37.8587 187.883 37.9909 187.5 38.0547C187.126 38.1276 186.684 38.1641 186.174 38.1641C185.636 38.1641 184.975 38.1003 184.191 37.9727ZM202.922 30.6035C202.922 29.1999 203.227 27.9147 203.838 26.748C204.449 25.5723 205.31 24.638 206.422 23.9453C207.534 23.2526 208.778 22.9062 210.154 22.9062C211.075 22.9062 211.923 23.0475 212.697 23.3301C213.472 23.6035 214.133 23.9863 214.68 24.4785C215.236 24.9707 215.705 25.554 216.088 26.2285C216.48 26.8939 216.767 27.6185 216.949 28.4023C217.141 29.1862 217.236 30.0065 217.236 30.8633C217.236 31.2734 217.218 31.5879 217.182 31.8066H206.312C206.495 32.9915 206.969 33.9167 207.734 34.582C208.509 35.2383 209.452 35.5664 210.564 35.5664C211.367 35.5664 212.082 35.4251 212.711 35.1426C213.34 34.8509 213.96 34.4043 214.57 33.8027L216.566 35.5664C215.035 37.4167 213.016 38.3418 210.51 38.3418C209.088 38.3418 207.803 38.0228 206.654 37.3848C205.506 36.7467 204.594 35.8353 203.92 34.6504C203.255 33.4655 202.922 32.1165 202.922 30.6035ZM206.285 29.5781H213.873C213.755 28.4297 213.367 27.4954 212.711 26.7754C212.064 26.0462 211.202 25.6816 210.127 25.6816C209.106 25.6816 208.249 26.0417 207.557 26.7617C206.873 27.4727 206.449 28.4115 206.285 29.5781ZM220.641 38V23.2207H224.018V29.209H230.553V23.2207H233.93V38H230.553V32.0391H224.018V38H220.641ZM238.195 38V23.2207H241.49V33.1328C244.042 29.5052 246.376 26.2012 248.49 23.2207H251.689V38H248.408V28.1426L241.381 38H238.195ZM255.121 30.6035C255.121 29.1999 255.426 27.9147 256.037 26.748C256.648 25.5723 257.509 24.638 258.621 23.9453C259.733 23.2526 260.977 22.9062 262.354 22.9062C263.274 22.9062 264.122 23.0475 264.896 23.3301C265.671 23.6035 266.332 23.9863 266.879 24.4785C267.435 24.9707 267.904 25.554 268.287 26.2285C268.679 26.8939 268.966 27.6185 269.148 28.4023C269.34 29.1862 269.436 30.0065 269.436 30.8633C269.436 31.2734 269.417 31.5879 269.381 31.8066H258.512C258.694 32.9915 259.168 33.9167 259.934 34.582C260.708 35.2383 261.652 35.5664 262.764 35.5664C263.566 35.5664 264.281 35.4251 264.91 35.1426C265.539 34.8509 266.159 34.4043 266.77 33.8027L268.766 35.5664C267.234 37.4167 265.215 38.3418 262.709 38.3418C261.287 38.3418 260.002 38.0228 258.854 37.3848C257.705 36.7467 256.794 35.8353 256.119 34.6504C255.454 33.4655 255.121 32.1165 255.121 30.6035ZM258.484 29.5781H266.072C265.954 28.4297 265.566 27.4954 264.91 26.7754C264.263 26.0462 263.402 25.6816 262.326 25.6816C261.305 25.6816 260.449 26.0417 259.756 26.7617C259.072 27.4727 258.648 28.4115 258.484 29.5781Z" fill="white"></path> <defs> <linearGradient id="paint0_linear" x1="5.9375" y1="-24.8" x2="377.564" y2="134.993" gradientUnits="userSpaceOnUse"> <stop stop-color="#D5D3FF"></stop> <stop offset="1" stop-color="#5EA9FF"></stop> </linearGradient> </defs> </svg>

<svg xmlns="http://www.w3.org/2000/svg" width="285" height="56" viewBox="0 0 285 56" fill="none"><path d="M277 0H8a8 8 0 00-8 8v40a8 8 0 008 8h269a8 8 0 008-8V8a8 8 0 00-8-8z" fill="#fff"/><path d="M277 0H8a8 8 0 00-8 8v40a8 8 0 008 8h269a8 8 0 008-8V8a8 8 0 00-8-8z" fill="url(#paint0_linear)"/><path d="M14.305 18.395h3.718L22.7 32.928l4.813-14.588h2.912l4.826 14.588 4.676-14.533h3.61L36.7 38.137h-2.967L28.92 24.055l-4.813 14.082h-2.98l-6.822-19.742zm31.992 2.556v-3.226h3.637v3.226h-3.637zM46.434 38V23.22h3.39V38h-3.39zm7.26-6.918v-3.336h8.284v3.336h-8.285zM66.065 38V18.395h14.588v3.144H69.512v5.346h9.885v3.13h-9.885V38h-3.446zm18.047-17.049v-3.226h3.637v3.226h-3.637zM84.25 38V23.22h3.39V38h-3.39zm14.807-14.78h3.609l4.211 10.965 3.828-10.964h3.527l-5.878 15.203c-.593 1.513-1.258 2.58-1.997 3.199-.729.629-1.686.943-2.871.943a7.25 7.25 0 01-3.5-.902l1.149-2.516c.674.374 1.335.561 1.982.561.483 0 .884-.128 1.203-.383.328-.255.629-.697.903-1.326l-6.166-14.78zM117.145 38V23.22h13.179V38h-3.39V26.133h-6.413V38h-3.376zm17.445 4.484V23.221h3.377v2.46c1.312-1.85 2.985-2.775 5.017-2.775a6.51 6.51 0 012.557.52c.82.346 1.554.838 2.201 1.476s1.162 1.454 1.545 2.448c.392.993.588 2.087.588 3.28 0 1.186-.196 2.27-.588 3.255-.383.984-.898 1.795-1.545 2.433a6.82 6.82 0 01-2.187 1.477 6.545 6.545 0 01-2.571.52c-2.023 0-3.696-.871-5.017-2.612v6.781h-3.377zm3.295-11.853c0 1.385.424 2.52 1.271 3.404.848.884 1.864 1.326 3.049 1.326 1.194 0 2.197-.433 3.008-1.298.811-.876 1.217-2.038 1.217-3.487 0-1.394-.41-2.53-1.231-3.404-.82-.884-1.818-1.326-2.994-1.326-1.185 0-2.201.446-3.049 1.34-.847.893-1.271 2.041-1.271 3.445zm14.451 3.062c0-1.586.547-2.789 1.641-3.609 1.102-.83 2.552-1.244 4.347-1.244 1.449 0 2.812.205 4.088.615v-.273c0-1.03-.314-1.814-.943-2.352-.62-.547-1.518-.82-2.694-.82-1.33 0-2.739.31-4.224.93l-.93-2.721a14.61 14.61 0 012.652-.916c.866-.21 1.86-.315 2.981-.315 2.151 0 3.769.543 4.853 1.627 1.094 1.076 1.641 2.616 1.641 4.621V38h-3.363v-1.818c-1.194 1.421-2.789 2.133-4.785 2.133-.957 0-1.828-.17-2.612-.506a4.498 4.498 0 01-1.914-1.586c-.492-.711-.738-1.554-.738-2.53zm3.363-.123c0 .675.269 1.208.807 1.6.538.392 1.221.588 2.051.588 1.13 0 2.064-.287 2.802-.861.739-.584 1.108-1.331 1.108-2.243v-.847c-.985-.392-2.115-.588-3.391-.588-1.066 0-1.896.205-2.488.615-.593.41-.889.989-.889 1.736zM169.781 38V23.22h7.588c1.477 0 2.657.333 3.541.999.884.665 1.326 1.563 1.326 2.693 0 1.55-.793 2.68-2.379 3.39 2.033.575 3.049 1.805 3.049 3.692 0 1.24-.487 2.22-1.463 2.94-.975.71-2.306 1.066-3.992 1.066h-7.67zm3.323-2.693h3.841c.812 0 1.431-.169 1.86-.506.437-.347.656-.811.656-1.395 0-.556-.228-.993-.684-1.312-.446-.32-1.112-.479-1.996-.479h-3.677v3.692zm0-5.989h3.472c.693 0 1.235-.164 1.627-.492.392-.337.588-.78.588-1.326 0-.51-.178-.916-.533-1.217-.356-.31-.898-.465-1.627-.465h-3.527v3.5zm11.087 8.655l.247-2.776c.291.073.619.11.984.11.328 0 .597-.037.807-.11.218-.082.446-.25.683-.506.246-.264.442-.665.588-1.203.155-.547.296-1.253.424-2.119.137-.875.232-1.991.287-3.35.064-1.357.096-2.957.096-4.798h11.17V38h-3.391V26.133h-4.607c0 1.513-.046 2.862-.137 4.047a30.817 30.817 0 01-.342 3.035c-.146.838-.342 1.558-.588 2.16-.246.592-.506 1.071-.779 1.435a2.947 2.947 0 01-.985.848c-.382.2-.765.333-1.148.397-.374.073-.816.11-1.326.11-.538 0-1.199-.065-1.983-.192zm18.731-7.37c0-1.403.305-2.688.916-3.855a7.093 7.093 0 012.584-2.803c1.112-.692 2.356-1.039 3.732-1.039.921 0 1.769.142 2.543.424.775.274 1.436.656 1.983 1.149a6.798 6.798 0 011.408 1.75c.392.665.679 1.39.861 2.173.192.784.287 1.604.287 2.461 0 .41-.018.725-.054.944h-10.87c.183 1.185.657 2.11 1.422 2.775.775.656 1.718.984 2.83.984.803 0 1.518-.14 2.147-.423.629-.292 1.249-.739 1.859-1.34l1.996 1.763c-1.531 1.85-3.55 2.776-6.056 2.776-1.422 0-2.707-.32-3.856-.957-1.148-.638-2.06-1.55-2.734-2.735-.665-1.184-.998-2.533-.998-4.046zm3.363-1.025h7.588c-.118-1.148-.506-2.083-1.162-2.803-.647-.729-1.509-1.093-2.584-1.093-1.021 0-1.878.36-2.57 1.08-.684.71-1.108 1.65-1.272 2.816zM220.641 38V23.22h3.377v5.989h6.535v-5.988h3.377V38h-3.377v-5.96h-6.535V38h-3.377zm17.554 0V23.22h3.295v9.913c2.552-3.628 4.886-6.932 7-9.912h3.199V38h-3.281v-9.857L241.381 38h-3.186zm16.926-7.396c0-1.404.305-2.69.916-3.856a7.093 7.093 0 012.584-2.803c1.112-.692 2.356-1.039 3.733-1.039.92 0 1.768.142 2.542.424.775.274 1.436.656 1.983 1.149a6.798 6.798 0 011.408 1.75c.392.665.679 1.39.861 2.173.192.784.288 1.604.288 2.461 0 .41-.019.725-.055.944h-10.869c.182 1.185.656 2.11 1.422 2.775.774.656 1.718.984 2.83.984.802 0 1.517-.14 2.146-.423.629-.292 1.249-.739 1.86-1.34l1.996 1.763c-1.532 1.85-3.551 2.776-6.057 2.776-1.422 0-2.707-.32-3.855-.957-1.149-.638-2.06-1.55-2.735-2.735-.665-1.184-.998-2.533-.998-4.046zm3.363-1.026h7.588c-.118-1.148-.506-2.083-1.162-2.803-.647-.729-1.508-1.093-2.584-1.093-1.021 0-1.877.36-2.57 1.08-.684.71-1.108 1.65-1.272 2.816z" fill="#fff"/><defs><linearGradient id="paint0_linear" x1="5.938" y1="-24.8" x2="377.564" y2="134.993" gradientUnits="userSpaceOnUse"><stop stop-color="#D5D3FF"/><stop offset="1" stop-color="#5EA9FF"/></linearGradient></defs></svg>
